packages/assets/static/images/icons/quote.svg

<svg width="24" height="24" viewBox="0 0 24 24" xmlns="http://www.w3.org/2000/svg">
<path d="M15.125 19.875L20.75 19.875C21.2473 19.875 21.7242 19.6775 22.0758 19.3258C22.4275 18.9742 22.625 18.4973 22.625 18L22.625 12C22.625 11.5027 22.4275 11.0258 22.0758 10.6742C21.7242 10.3225 21.2473 10.125 20.75 10.125L15.5 10.125L15.5 9.75C15.5 9.05381 15.7766 8.38613 16.2688 7.89384C16.7611 7.40156 17.4288 7.125 18.125 7.125C18.4234 7.125 18.7095 7.00647 18.9205 6.79549C19.1315 6.58452 19.25 6.29837 19.25 6C19.25 5.70163 19.1315 5.41548 18.9205 5.20451C18.7095 4.99353 18.4234 4.875 18.125 4.875C16.8325 4.87649 15.5934 5.39058 14.6795 6.3045C13.7656 7.21842 13.2515 8.45753 13.25 9.75L13.25 18C13.25 18.4973 13.4475 18.9742 13.7992 19.3258C14.1508 19.6775 14.6277 19.875 15.125 19.875ZM15.5 12.375L20.375 12.375L20.375 17.625L15.5 17.625L15.5 12.375ZM4.25 19.875L9.875 19.875C10.3723 19.875 10.8492 19.6775 11.2008 19.3258C11.5525 18.9742 11.75 18.4973 11.75 18L11.75 12C11.75 11.5027 11.5525 11.0258 11.2008 10.6742C10.8492 10.3225 10.3723 10.125 9.875 10.125L4.625 10.125L4.625 9.75C4.625 9.0538 4.90156 8.38613 5.39385 7.89384C5.88613 7.40156 6.55381 7.125 7.25 7.125C7.54837 7.125 7.83452 7.00647 8.0455 6.79549C8.25647 6.58452 8.375 6.29837 8.375 6C8.375 5.70163 8.25647 5.41548 8.0455 5.2045C7.83452 4.99353 7.54837 4.875 7.25 4.875C5.95753 4.87649 4.71842 5.39058 3.8045 6.3045C2.89058 7.21841 2.37649 8.45752 2.375 9.75L2.375 18C2.375 18.4973 2.57254 18.9742 2.92418 19.3258C3.27581 19.6775 3.75272 19.875 4.25 19.875ZM4.625 12.375L9.5 12.375L9.5 17.625L4.625 17.625L4.625 12.375Z"/>
</svg>

<svg viewBox="0 0 24 24" xmlns="http://www.w3.org/2000/svg" aria-hidden="true" fill="currentColor" height="24px" width="24px"><path d="M15.125 19.875h5.625A1.875 1.875 0 0 0 22.625 18v-6a1.875 1.875 0 0 0-1.875-1.875H15.5V9.75a2.625 2.625 0 0 1 2.625-2.625 1.125 1.125 0 1 0 0-2.25A4.88 4.88 0 0 0 13.25 9.75V18a1.875 1.875 0 0 0 1.875 1.875m.375-7.5h4.875v5.25H15.5zm-11.25 7.5h5.625A1.875 1.875 0 0 0 11.75 18v-6a1.875 1.875 0 0 0-1.875-1.875h-5.25V9.75A2.625 2.625 0 0 1 7.25 7.125a1.125 1.125 0 0 0 0-2.25A4.88 4.88 0 0 0 2.375 9.75V18a1.875 1.875 0 0 0 1.875 1.875m.375-7.5H9.5v5.25H4.625z"/></svg>
